flaticon/coffee-shop/cinnamon.svg

<svg xmlns="http://www.w3.org/2000/svg" width="32" height="32" viewBox="0 0 24 24">
    <path d="M 18 22.238281 L 16.800781 9.039062 C 16.71875 8.238281 16.039062 7.601562 15.199219 7.601562 L 15.199219 6 L 15.601562 6 C 16.28125 6 16.800781 5.480469 16.800781 4.800781 C 16.800781 2.160156 14.640625 0 12 0 C 9.359375 0 7.199219 2.160156 7.199219 4.800781 C 7.199219 5.480469 7.71875 6 8.402344 6 L 8.800781 6 L 8.800781 7.601562 C 7.960938 7.601562 7.28125 8.238281 7.199219 9.039062 L 6 22.238281 C 5.960938 22.679688 6.082031 23.160156 6.402344 23.480469 C 6.71875 23.800781 7.160156 24 7.601562 24 L 16.402344 24 C 16.839844 24 17.28125 23.800781 17.601562 23.480469 C 17.878906 23.121094 18.039062 22.679688 18 22.238281 Z M 8.402344 5.199219 C 8.160156 5.199219 8 5.039062 8 4.800781 C 8 2.601562 9.800781 0.800781 12 0.800781 C 14.199219 0.800781 16 2.601562 16 4.800781 C 16 5.039062 15.839844 5.199219 15.601562 5.199219 Z M 9.601562 6 L 14.402344 6 L 14.402344 7.601562 L 9.601562 7.601562 Z M 17 22.921875 C 16.839844 23.121094 16.640625 23.199219 16.402344 23.199219 L 7.601562 23.199219 C 7.359375 23.199219 7.160156 23.078125 7 22.921875 C 6.839844 22.761719 6.761719 22.558594 6.800781 22.320312 L 8 9.121094 C 8.039062 8.71875 8.402344 8.398438 8.800781 8.398438 L 15.199219 8.398438 C 15.601562 8.398438 15.960938 8.71875 16 9.121094 L 17.199219 22.320312 C 17.242188 22.519531 17.160156 22.761719 17 22.921875 Z M 17 22.921875"/>
    <path d="M12 1.601562C11.761719 1.601562 11.601562 1.761719 11.601562 2 11.601562 2.238281 11.761719 2.398438 12 2.398438 12.242188 2.398438 12.402344 2.238281 12.402344 2 12.402344 1.761719 12.242188 1.601562 12 1.601562zM13.601562 2C13.359375 2 13.199219 2.160156 13.199219 2.398438 13.199219 2.640625 13.359375 2.800781 13.601562 2.800781 13.839844 2.800781 14 2.640625 14 2.398438 14 2.160156 13.839844 2 13.601562 2zM10.402344 2C10.160156 2 10 2.160156 10 2.398438 10 2.640625 10.160156 2.800781 10.402344 2.800781 10.640625 2.800781 10.800781 2.640625 10.800781 2.398438 10.800781 2.160156 10.640625 2 10.402344 2zM12.402344 13.199219C13.039062 13.199219 13.601562 13.398438 14.160156 13.878906 14.320312 14.039062 14.5625 14 14.722656 13.839844 14.878906 13.679688 14.839844 13.441406 14.679688 13.28125 13.960938 12.679688 13.242188 12.398438 12.402344 12.398438 10.402344 12.398438 8.800781 14 8.800781 16 8.800781 18 10.402344 19.601562 12.402344 19.601562 13.242188 19.601562 13.960938 19.320312 14.640625 18.679688 14.800781 18.519531 14.839844 18.28125 14.679688 18.121094 14.519531 17.960938 14.28125 17.921875 14.121094 18.078125 13.601562 18.601562 13.039062 18.800781 12.402344 18.800781 10.839844 18.800781 9.601562 17.558594 9.601562 16 9.601562 14.441406 10.839844 13.199219 12.402344 13.199219zM12.402344 13.199219"/>
</svg>

<svg xmlns="http://www.w3.org/2000/svg" width="32" height="32" viewBox="0 0 24 24">
    <path d="M18 22.238L16.8 9.04a1.607 1.607 0 0 0-1.6-1.437V6h.402c.68 0 1.199-.52 1.199-1.2C16.8 2.16 14.64 0 12 0 9.36 0 7.2 2.16 7.2 4.8c0 .68.519 1.2 1.202 1.2h.399v1.602c-.84 0-1.52.636-1.602 1.437L6 22.24c-.04.44.082.921.402 1.241.317.32.758.52 1.2.52h8.8c.438 0 .88-.2 1.2-.52.277-.359.437-.8.398-1.242zM8.402 5.2C8.16 5.2 8 5.04 8 4.801c0-2.2 1.8-4 4-4s4 1.8 4 4c0 .238-.16.398-.398.398zm1.2.801h4.8v1.602h-4.8zM17 22.922c-.16.2-.36.277-.598.277h-8.8c-.243 0-.442-.12-.602-.277a.666.666 0 0 1-.2-.602L8 9.121a.82.82 0 0 1 .8-.723h6.4c.402 0 .76.32.8.723l1.2 13.2c.042.199-.04.44-.2.6zm0 0"/>
    <path d="M12 1.602c-.238 0-.398.16-.398.398 0 .238.16.398.398.398.242 0 .402-.16.402-.398 0-.238-.16-.398-.402-.398zm0 0M13.602 2c-.243 0-.403.16-.403.398 0 .243.16.403.403.403.238 0 .398-.16.398-.403C14 2.16 13.84 2 13.602 2zm0 0M10.402 2c-.242 0-.402.16-.402.398 0 .243.16.403.402.403.239 0 .399-.16.399-.403 0-.238-.16-.398-.399-.398zm0 0M12.402 13.2c.637 0 1.2.198 1.758.679.16.16.402.121.563-.04.156-.16.117-.398-.043-.558-.72-.601-1.438-.883-2.278-.883-2 0-3.601 1.602-3.601 3.602 0 2 1.601 3.602 3.601 3.602.84 0 1.559-.282 2.239-.922.16-.16.199-.399.039-.559-.16-.16-.399-.2-.559-.043-.52.524-1.082.723-1.719.723A2.783 2.783 0 0 1 9.602 16c0-1.559 1.238-2.8 2.8-2.8zm0 0"/>
</svg>
